!!!ONB: MCCC : IJH0435_04 : Extracted Monophonic Melody
!!!COM: Haydn, Joseph
!!!OPR: String Quartet, Hob.III:43
!!!OMV: 4
!!!SCT: Hob.III:43 ; Op.42
!!!ODT: 1785///
**kern
*thru
*k[b-]
*d:
*clefG
*M2/4
8ee
=4
8ff
8ee
8ff
8ee
=5
8.ff
16gg
8aa
8bb-
=6
8aa
8gg
8ff
8ee
=7
2ddd
=8
2aa
=9
8ff
8ff
8gg
16ff
16gg
=10
8aa
8a
8cc
8a
=11
8r
8g#
8b
8e
=12
2a
=13
8g
8cc
8dd
8ee
=14
8ff
8cc
4ff[
=15
4ff]
4ee
=16
8ff
16ee
16ff
8gg
8ff
=17
8ee
16ee
16ff
8gg
8aa
=18
8bb-
8aa
8bb-
8aa
=19
8gg
16ee
16ff
8gg
8aa
=20
8bb-
8aa
8bb-
8aa
=21
4gg
4r
=22
2ccc
=23
2ff#
=24
2bb-
=25
2ee
=26
8ff
8ff
8gg
16ff
16gg
=27
8ff
8ff
8bb-
16aa
16bb-
=28
8aa
8aa
8gg
16ff
16gg
=29
2ff
=30
2ff
=31
2ff[
=32
4ff]
8ff#
16ee
16ff#
=33
8gg
8aa
8bb-
8ddd
=34
4ff
4ee
=35
4ff
8r
8ee
=36
8ff
8ff
8r
8ee
=37
8ff
8ff
8r
8ee
=38
8ff
8ee
8ff
8ee
=39
4ff
4r
=40
2ddd
=41
2aa
=42
8ff#
8ff#
8gg
16ff#
16gg
=43
4aa
4r
=44
8aa
8aa
8bb-
16aa
16bb-
=45
4ccc
4r
=46
8ccc
8ccc
8ddd
16ccc
16ddd
=47
4eee-
4r
=48
2r
=49
2r
=50
2r
=51
2r
=52
2r
=53
2r
=54
8dd
8dd
8ee
16dd
16ee
=55
4ff
4r
=56
8ee-
8ee-
8ff#
16ee
16ff#
=57
4gg
4r
=58
8ff
8ff
8gg#
16ff#
16gg#
=59
8aa
8aa
8ccc
8aa
=60
8r
8gg#
8bb
8ee
=61
8eee
8eee
8ddd
8ccc
=62
4.bb
8ccc
=63
8ddd
8ddd
8ccc
8bb
=64
8aa
8ff
8ee
8dd
=65
4.cc#
8dd
=66
8ee
8ee
8dd
8cc#
=67
4dd
4r
=68
2r
=69
2r
=70
2r
=71
2r
=72
8r
16cc#
16dd
8ee
8ff
=73
8ee
8ff
8gg
8ff
=74
4ee
4r
=75
2bb-
=76
2ee-
=77
2aa
=78
2dd
=79
2gg
=80
2cc#
=81
8dd
8dd
8ee
16dd
16ee
=82
8dd
8dd
8gg
16ff
16gg
=83
8ff
8ff
8ee
16dd
16ee
=84
2ddd
=85
2ddd
=86
2ddd[
=87
8ddd]
8ddd
8ccc
16bb-
16ccc
=88
8bb-
8bb-
8aa
8gg
=89
4ff
4ee
=90
4dd
8r
8cc#
=91
8dd
8dd
8r
8ccc#
=92
8ddd
8ddd
8r
8cc#
=93
8dd
8cc#
8dd
8cc#
=94
4dd
4r
=95
2ddd
=96
2aa
=97
8ff
8ff
8gg
16ff
16gg
=98
4aa
4r
=99
8ee
8ee
8ff
16ee
16ff
=100
4gg
4r
=101
2cc#
=102
4dd
4r
==
*-
